assets/images/avatar/Avatar 10.svg

<svg fill="none" height="128" viewBox="0 0 128 128" width="128" xmlns="http://www.w3.org/2000/svg" xmlns:xlink="http://www.w3.org/1999/xlink"><mask id="a" height="127" maskUnits="userSpaceOnUse" width="124" x="2" y="0"><path clip-rule="evenodd" d="m66.5542.914321c18.4402-.019674 27.9266 20.639579 38.8108 35.560779 10.009 13.7224 22.287 27.5962 19.487 44.3622-2.949 17.6622-17.306 30.7137-33.3422 38.6067-16.2104 7.978-34.7479 10.103-51.4012 3.101-17.7908-7.48-34.67067-21.294-37.40056-40.4384-2.576988-18.0718 13.86496-31.2118 25.13906-45.5488 11.4108-14.5111 20.274-35.623814 38.7071-35.643479z" fill="#eff6f7" fill-rule="evenodd"/></mask><g mask="url(#a)"><path clip-rule="evenodd" d="m66.5542.914321c18.4402-.019674 27.9266 20.639579 38.8108 35.560779 10.009 13.7224 22.287 27.5962 19.487 44.3622-2.949 17.6622-17.306 30.7137-33.3422 38.6067-16.2104 7.978-34.7479 10.103-51.4012 3.101-17.7908-7.48-34.67067-21.294-37.40056-40.4384-2.576988-18.0718 13.86496-31.2118 25.13906-45.5488 11.4108-14.5111 20.274-35.623814 38.7071-35.643479z" fill="#eff6f7" fill-rule="evenodd"/><path d="m107.931 99.6625c-10.2182-5.3516-5.29-2.7428-17.0662-8.2651-9.664-4.5318-11.6267-12.989-11.6267-21.4491 0-6.9517-7.1771-10.7947-14.589-11.7639-7.4118.9692-14.5889 4.8122-14.5889 11.7639 0 8.4601-1.9627 16.9173-11.6267 21.4491-11.7668 5.5192-8.2286 2.9135-18.4442 8.2651-12.27883 6.4305-14.9333 14.9055-17.24644 26.4895h122.42614c-2.301-11.584-4.959-20.059-17.238-26.4895z" fill="#854789"/><path d="m125.181 126.152h-122.42593c2.30704-11.58 4.95846-20.059 17.24343-26.4864 10.2156-5.3486 6.6773-2.7428 18.4411-8.2712 2.0353-.9244 3.9026-2.1809 5.5254-3.7181 1.5238 4.2484 6.7413 13.5407 20.0624 13.5407 12.0656 0 19.2549-10.4382 20.4191-14.4763 1.8059 1.9668 3.9912 3.5478 6.4244 4.6476 11.7641 5.5253 6.8388 2.9227 17.0671 8.2712 12.272 6.4335 14.936 14.9085 17.243 26.4925z" fill="#f2d6f6"/><path d="m79.8415 76.9426c-.2219-1.1728-.3776-2.3572-.4663-3.5475-.1975-.4368-.3014-.9102-.3048-1.3897-.0365-.5089-.0487-1.152-.0487-2.0571 0-.3322-.0305-.6522-.061-.9722-.0243-.2103-.0517-.4206-.0883-.6095-9.3196.6095-20.1143.7497-28.7848 1.3196 0 .0945-.0183.1829-.0183.2773 0 5.8789-.9539 11.7517-4.7756 16.3109 7.7623 3.075 26.8617 5.056 34.5478-9.3318z" fill="#5a305f"/><path d="m75.1695 10.0565c-.5608-2.71545-2.5265-5.39431-5.9032-7.14364-2.6423-1.36534-7.9939-1.52381-10.8252 0-3.3524 1.80114-5.3425 4.42819-5.9032 7.14364-.5212 2.5295-.5212 9.3562 3.1421 10.3619 2.2887.6308 6.1958.7162 8.1676.7162h.2316c1.9718 0 5.8789-.0854 8.1707-.7162 3.6602-1.0057 3.4438-7.8324 2.9196-10.3619z" fill="#28213d"/><path d="m83.6541 60.269c-1.7341.8777-2.1607-1.1916-2.307-3.3767-.1494-2.24.3565-6.0374 1.9413-7.6831s3.8918-2.5448 4.9463-.0792c.9021 2.1059-.4571 9.0544-4.5806 11.139z" fill="#854789"/><path d="m44.2697 60.269c1.7341.8777 2.1607-1.1916 2.307-3.3767.1493-2.24-.3596-6.0374-1.9413-7.6831s-3.8918-2.5448-4.9494-.0792c-.902 2.1059.4481 9.0544 4.5837 11.139z" fill="#854789"/><path d="m79.8415 19.1232c-10.2283-3.9173-21.5432-3.9173-31.7715 0-10.1028 4.4312-12.4312 18.1973-9.7097 24.7954 1.7037 4.1295 1.7555 6.781 5.181 9.8743 2.9379 2.6514 7.0095 2.9166 10.7672 3.1208 3.2203.1747 6.4366.2519 9.6488.2316 3.2162.0183 6.4335-.059 9.6518-.2316 3.7577-.2042 7.8293-.4694 10.7642-3.1208 3.4255-3.0933 3.4773-5.7448 5.1809-9.8743 2.7185-6.5981.3901-20.3642-9.7127-24.7954z" fill="#28213d"/><path d="m83.8247 41.8828c-.0701-5.1322-1.4872-9.0575-4.1935-10.8008-5.8971-3.8004-7.0552.7315-15.6069.5913h-.07-.0671c-.0446.0032-.0894.0032-.1341 0h-.067c-8.5517.1402-9.7097-4.3917-15.6099-.5913-2.7063 1.7433-4.1204 5.6686-4.1905 10.8008-.0335 2.6118-1.0971 5.3729-.8411 9.4476.3443 5.5253 1.5969 10.6667 3.2183 15.5916 2.5539 7.7654 10.502 12.2362 12.4708 12.9158 1.6015.5081 3.2666.7882 4.9463.832l.1737-.0244.1737.0244c1.6806-.0439 3.3467-.3239 4.9493-.832 1.9688-.6796 9.917-5.1504 12.4678-12.9158 1.6244-4.9371 2.877-10.0571 3.2214-15.5916.256-4.0747-.8076-6.8358-.8412-9.4476z" fill="#854789"/><path d="m68.9767 79.8347c.8533-.3047 2.8374-1.3104 5.0134-2.9958.4304-.3397.7114-.8339.7832-1.3775.1342-.9283.1649-1.8687.0914-2.8038-.2225-2.5935-.8228-5.4431-2.4838-7.5794-2.0053-2.5783-5.3425-3.4103-8.4785-3.3981-2.5661 0-5.4095.6095-7.4514 2.3131-2.4686 2.0754-3.1421 5.6076-3.4072 8.6644-.077 1.001-.0351 2.0077.1249 2.9989.0753.5428.361 1.0343.7955 1.3683 2.0784 1.5726 3.9618 2.5265 4.7695 2.8099 1.6015.5081 3.2666.7882 4.9462.832l.1738-.0243.1737.0243c1.6806-.0438 3.3467-.3239 4.9493-.832z" fill="#28213d"/><path d="m64.384 72.7399c2.6454-.2225 4.6781-2.0297 6.2477-4.035.1001-.0942.1756-.2115.2197-.3418.0441-.1302.0555-.2692.0332-.4049-.509-1.4689-5.6564-1.1124-6.9181-1.1337-4.0716-.0671-6.4396.7924-6.6804.9661-1.2526.896 1.1094 2.6971 1.7402 3.1878 1.7433 1.3745 3.5901 1.9078 5.3577 1.7615z" fill="#854789"/></g></svg>

<svg width="128" height="128" viewBox="0 0 128 128" fill="none" xmlns="http://www.w3.org/2000/svg">
<mask id="mask0_457_1647" style="mask-type:alpha" maskUnits="userSpaceOnUse" x="2" y="0" width="124" height="127">
<path fill-rule="evenodd" clip-rule="evenodd" d="M66.5542 0.914321C84.9944 0.894647 94.4808 21.5539 105.365 36.4751C115.374 50.1975 127.652 64.0713 124.852 80.8373C121.903 98.4995 107.546 111.551 91.5098 119.444C75.2994 127.422 56.7619 129.547 40.1086 122.545C22.3178 115.065 5.43793 101.251 2.70804 82.1066C0.131052 64.0348 16.573 50.8948 27.8471 36.5578C39.2579 22.0467 48.1211 0.933986 66.5542 0.914321Z" fill="#EFF6F7"/>
</mask>
<g mask="url(#mask0_457_1647)">
<path fill-rule="evenodd" clip-rule="evenodd" d="M66.5542 0.914321C84.9944 0.894647 94.4808 21.5539 105.365 36.4751C115.374 50.1975 127.652 64.0713 124.852 80.8373C121.903 98.4995 107.546 111.551 91.5098 119.444C75.2994 127.422 56.7619 129.547 40.1086 122.545C22.3178 115.065 5.43793 101.251 2.70804 82.1066C0.131052 64.0348 16.573 50.8948 27.8471 36.5578C39.2579 22.0467 48.1211 0.933986 66.5542 0.914321Z" fill="#EFF6F7"/>
<path d="M107.931 99.6625C97.7128 94.3109 102.641 96.9197 90.8648 91.3974C81.2008 86.8656 79.2381 78.4084 79.2381 69.9483C79.2381 62.9966 72.061 59.1536 64.6491 58.1844C57.2373 59.1536 50.0602 62.9966 50.0602 69.9483C50.0602 78.4084 48.0975 86.8656 38.4335 91.3974C26.6667 96.9166 30.2049 94.3109 19.9893 99.6625C7.71047 106.093 5.056 114.568 2.74286 126.152H125.169C122.868 114.568 120.21 106.093 107.931 99.6625Z" fill="#854789"/>
<path d="M125.181 126.152H2.75507C5.06211 114.572 7.71353 106.093 19.9985 99.6656C30.2141 94.317 26.6758 96.9228 38.4396 91.3944C40.4749 90.47 42.3422 89.2135 43.965 87.6763C45.4888 91.9247 50.7063 101.217 64.0274 101.217C76.093 101.217 83.2823 90.7788 84.4465 86.7407C86.2524 88.7075 88.4377 90.2885 90.8709 91.3883C102.635 96.9136 97.7097 94.311 107.938 99.6595C120.21 106.093 122.874 114.568 125.181 126.152Z" fill="#F2D6F6"/>
<path d="M79.8415 76.9426C79.6196 75.7698 79.4639 74.5854 79.3752 73.3951C79.1777 72.9583 79.0738 72.4849 79.0704 72.0054C79.0339 71.4965 79.0217 70.8534 79.0217 69.9483C79.0217 69.6161 78.9912 69.2961 78.9607 68.9761C78.9364 68.7658 78.909 68.5555 78.8724 68.3666C69.5528 68.9761 58.7581 69.1163 50.0876 69.6862C50.0876 69.7807 50.0693 69.8691 50.0693 69.9635C50.0693 75.8424 49.1154 81.7152 45.2937 86.2744C53.056 89.3494 72.1554 91.3304 79.8415 76.9426Z" fill="#5A305F"/>
<path d="M75.1695 10.0565C74.6087 7.34105 72.643 4.66219 69.2663 2.91286C66.624 1.54752 61.2724 1.38905 58.4411 2.91286C55.0887 4.714 53.0986 7.34105 52.5379 10.0565C52.0167 12.586 52.0167 19.4127 55.68 20.4184C57.9687 21.0492 61.8758 21.1346 63.8476 21.1346H64.0792C66.051 21.1346 69.9581 21.0492 72.2499 20.4184C75.9101 19.4127 75.6937 12.586 75.1695 10.0565Z" fill="#28213D"/>
<path d="M83.6541 60.269C81.92 61.1467 81.4934 59.0774 81.3471 56.8923C81.1977 54.6523 81.7036 50.8549 83.2884 49.2092C84.8732 47.5635 87.1802 46.6644 88.2347 49.13C89.1368 51.2359 87.7776 58.1844 83.6541 60.269Z" fill="#854789"/>
<path d="M44.2697 60.269C46.0038 61.1467 46.4304 59.0774 46.5767 56.8923C46.726 54.6523 46.2171 50.8549 44.6354 49.2092C43.0537 47.5635 40.7436 46.6644 39.686 49.13C38.784 51.2359 40.1341 58.1844 44.2697 60.269Z" fill="#854789"/>
<path d="M79.8415 19.1232C69.6132 15.2059 58.2983 15.2059 48.07 19.1232C37.9672 23.5544 35.6388 37.3205 38.3603 43.9186C40.064 48.0481 40.1158 50.6996 43.5413 53.7929C46.4792 56.4443 50.5508 56.7095 54.3085 56.9137C57.5288 57.0884 60.7451 57.1656 63.9573 57.1453C67.1735 57.1636 70.3908 57.0863 73.6091 56.9137C77.3668 56.7095 81.4384 56.4443 84.3733 53.7929C87.7988 50.6996 87.8506 48.0481 89.5542 43.9186C92.2727 37.3205 89.9443 23.5544 79.8415 19.1232Z" fill="#28213D"/>
<path d="M83.8247 41.8828C83.7546 36.7506 82.3375 32.8253 79.6312 31.082C73.7341 27.2816 72.576 31.8135 64.0243 31.6733H63.9543H63.8872C63.8426 31.6765 63.7978 31.6765 63.7531 31.6733H63.6861C55.1344 31.8135 53.9764 27.2816 48.0762 31.082C45.3699 32.8253 43.9558 36.7506 43.8857 41.8828C43.8522 44.4946 42.7886 47.2557 43.0446 51.3304C43.3889 56.8557 44.6415 61.9971 46.2629 66.922C48.8168 74.6874 56.7649 79.1582 58.7337 79.8378C60.3352 80.3459 62.0003 80.626 63.68 80.6698L63.8537 80.6454L64.0274 80.6698C65.708 80.6259 67.3741 80.3459 68.9767 79.8378C70.9455 79.1582 78.8937 74.6874 81.4445 66.922C83.0689 61.9849 84.3215 56.8649 84.6659 51.3304C84.9219 47.2557 83.8583 44.4946 83.8247 41.8828Z" fill="#854789"/>
<path d="M68.9767 79.8347C69.83 79.53 71.8141 78.5243 73.9901 76.8389C74.4205 76.4992 74.7015 76.005 74.7733 75.4614C74.9075 74.5331 74.9382 73.5927 74.8647 72.6576C74.6422 70.0641 74.0419 67.2145 72.3809 65.0782C70.3756 62.4999 67.0384 61.6679 63.9024 61.6801C61.3363 61.6801 58.4929 62.2896 56.451 63.9932C53.9824 66.0686 53.3089 69.6008 53.0438 72.6576C52.9668 73.6586 53.0087 74.6653 53.1687 75.6565C53.244 76.1993 53.5297 76.6908 53.9642 77.0248C56.0426 78.5974 57.926 79.5513 58.7337 79.8347C60.3352 80.3428 62.0003 80.6229 63.6799 80.6667L63.8537 80.6424L64.0274 80.6667C65.708 80.6229 67.3741 80.3428 68.9767 79.8347V79.8347Z" fill="#28213D"/>
<path d="M64.384 72.7399C67.0294 72.5174 69.0621 70.7102 70.6317 68.7049C70.7318 68.6107 70.8073 68.4934 70.8514 68.3631C70.8955 68.2329 70.9069 68.0939 70.8846 67.9582C70.3756 66.4893 65.2282 66.8458 63.9665 66.8245C59.8949 66.7574 57.5269 67.6169 57.2861 67.7906C56.0335 68.6866 58.3955 70.4877 59.0263 70.9784C60.7696 72.3529 62.6164 72.8862 64.384 72.7399Z" fill="#854789"/>
</g>
</svg>
